content/multivariable-calculus/images/two-parabs.svg

<svg height="113.39pt" viewBox="0 0 113.39 113.39" width="113.39pt" xmlns="http://www.w3.org/2000/svg" xmlns:xlink="http://www.w3.org/1999/xlink"><clipPath id="a"><path d="m105 54h8.390625v5h-8.390625zm0 0"/></clipPath><clipPath id="b"><path d="m56 7h1v106.390625h-1zm0 0"/></clipPath><clipPath id="c"><path d="m35 49h44v64.390625h-44zm0 0"/></clipPath><path d="m42.582031 77.863281.140625-.5625.425782-1.648437.421874-1.601563.421876-1.550781.425781-1.496094.421875-1.449218.421875-1.398438.425781-1.34375.421875-1.296875.421875-1.242187.425781-1.195313.421875-1.144531.425782-1.089844.421874-1.042969.421876-.988281.425781-.941406.421875-.890625.421875-.835938.425781-.789062.421875-.734375.425781-.6875.421875-.632813.421875-.585937.425782-.53125.421874-.484375.421876-.433594.425781-.378906.421875-.332031.425781-.277344.421875-.230469.421875-.175781.425781-.128906.421875-.074219.421875-.027344.425782.027344.421874.074219.425782.128906.421875.175781.421875.230469.425781.277344.421875.332031.421875.378906.425781.433594.421875.484375.421875.53125.425782.585937.421874.632813.425782.6875.421875.734375.421875.789062.425781.835938.421875.890625.421875.941406.425781.988281.421875 1.042969.425781 1.089844.421876 1.144531.421874 1.195313.425782 1.242187.421875 1.296875.421875 1.34375.425781 1.398438.421875 1.449218.425781 1.496094.421875 1.550781.421875 1.601563.425781 1.648437.136719.5625-.136719.5625-.425781 1.648438-.421875 1.601562-.421875 1.550781-.425781 1.496094-.421875 1.449219-.425781 1.398437-.421875 1.34375-.421875 1.296876-.425782 1.242187-.421874 1.195313-.421876 1.144531-.425781 1.089843-.421875 1.042969-.425781.988281-.421875.941407-.421875.890625-.425781.835937-.421875.789063-.421875.734375-.425782.6875-.421874.632812-.425782.585938-.421875.53125-.421875.484375-.425781.433594-.421875.378906-.421875.332031-.425781.277344-.421875.230469-.421875.175781-.425782.128906-.421874.074219-.425782.027344-.421875-.027344-.421875-.074219-.425781-.128906-.421875-.175781-.421875-.230469-.425781-.277344-.421875-.332031-.425781-.378906-.421876-.433594-.421874-.484375-.425782-.53125-.421875-.585938-.421875-.632812-.425781-.6875-.421875-.734375-.425781-.789063-.421875-.835937-.421875-.890625-.425781-.941407-.421876-.988281-.421874-1.042969-.425782-1.089843-.421875-1.144531-.425781-1.195313-.421875-1.242187-.421875-1.296876-.425781-1.34375-.421875-1.398437-.421875-1.449219-.425781-1.496094-.421876-1.550781-.421874-1.601562-.425782-1.648438z" fill="#006400" fill-opacity=".6"/><path d="m1056.367188 566.946875h-1053.867188" style="fill:none;stroke-width:5;stroke-linecap:round;stroke-linejoin:round;stroke:#000;stroke-miterlimit:10" transform="matrix(.1 0 0 -.1 0 113.39)"/><g clip-path="url(#a)"><path d="m1131.367188 566.946875-75 20.078125v-40.195312zm0 0" stroke="#000" stroke-linecap="round" stroke-linejoin="round" stroke-miterlimit="10" stroke-width="5" transform="matrix(.1 0 0 -.1 0 113.39)"/></g><g clip-path="url(#b)"><path d="m566.914062 1056.360938v-1053.867188" style="fill:none;stroke-width:5;stroke-linecap:round;stroke-linejoin:round;stroke:#000;stroke-miterlimit:10" transform="matrix(.1 0 0 -.1 0 113.39)"/></g><path d="m566.914062 1131.360938-20.078124-75h40.195312zm0 0" stroke="#000" stroke-linecap="round" stroke-linejoin="round" stroke-miterlimit="10" stroke-width="5" transform="matrix(.1 0 0 -.1 0 113.39)"/><g clip-path="url(#c)"><path d="m355.273438 2.49375 4.21875 25.15625 4.257812 24.648438 4.21875 24.101562 4.21875 23.632813 4.257812 23.125 4.21875 22.578125 4.21875 22.109375 4.257813 21.601562 4.21875 21.054688 4.257813 20.585937 4.21875 20.078125 4.21875 19.53125 4.257812 19.0625 4.21875 18.554688 4.21875 18.007812 4.257812 17.539063 4.21875 17.03125 4.257813 16.484375 4.21875 16.015625 4.21875 15.507812 4.257813 14.960938 4.21875 14.492187 4.21875 13.984375 4.257812 13.4375 4.21875 12.96875 4.21875 12.421875 4.257812 11.953125 4.21875 11.445313 4.257813 10.898437 4.21875 10.429688 4.21875 9.882812 4.257813 9.414063 4.21875 8.90625 4.21875 8.359375 4.257812 7.890625 4.21875 7.34375 4.257812 6.875 4.21875 6.328125 4.21875 5.859375 4.257813 5.3125 4.21875 4.84375 4.21875 4.335937 4.257813 3.789063 4.21875 3.320312 4.257812 2.773438 4.21875 2.304687 4.21875 1.757813 4.257812 1.289062 4.21875.742188 4.21875.273437 4.257813-.273437 4.21875-.742188 4.257813-1.289062 4.21875-1.757813 4.21875-2.304687 4.257812-2.773438 4.21875-3.320312 4.21875-3.789063 4.257812-4.335937 4.21875-4.84375 4.21875-5.3125 4.257813-5.859375 4.21875-6.328125 4.257813-6.875 4.21875-7.34375 4.21875-7.890625 4.257812-8.359375 4.21875-8.90625 4.21875-9.414063 4.257812-9.882812 4.21875-10.429688 4.257813-10.898437 4.21875-11.445313 4.21875-11.953125 4.257813-12.421875 4.21875-12.96875 4.21875-13.4375 4.257812-13.984375 4.21875-14.492187 4.257812-14.960938 4.21875-15.507812 4.21875-16.015625 4.257813-16.484375 4.21875-17.03125 4.21875-17.539063 4.257813-18.007812 4.21875-18.554688 4.257812-19.0625 4.21875-19.53125 4.21875-20.078125 4.257812-20.585937 4.21875-21.054688 4.21875-21.601562 4.257813-22.109375 4.21875-22.578125 4.21875-23.125 4.257813-23.632813 4.21875-24.101562 4.21875-24.648438 4.257812-25.15625" style="fill:none;stroke-width:5;stroke-linecap:round;stroke-linejoin:round;stroke:#000;stroke-miterlimit:10" transform="matrix(.1 0 0 -.1 0 113.39)"/></g><path d="m355.273438 708.040625 4.21875-25.15625 4.257812-24.648437 4.21875-24.101563 4.21875-23.632812 4.257812-23.125 4.21875-22.578125 4.21875-22.109375 4.257813-21.601563 4.21875-21.054687 4.257813-20.585938 4.21875-20.078125 4.21875-19.53125 4.257812-19.0625 4.21875-18.554687 4.21875-18.007813 4.257812-17.539062 4.21875-17.03125 4.257813-16.484375 4.21875-16.015625 4.21875-15.507813 4.257813-14.960937 4.21875-14.492188 4.21875-13.984375 4.257812-13.4375 4.21875-12.96875 4.21875-12.421875 4.257812-11.953125 4.21875-11.445312 4.257813-10.898438 4.21875-10.429687 4.21875-9.882813 4.257813-9.414062 4.21875-8.90625 4.21875-8.359375 4.257812-7.890625 4.21875-7.34375 4.257812-6.875 4.21875-6.328125 4.21875-5.859375 4.257813-5.3125 4.21875-4.84375 4.21875-4.335938 4.257813-3.789062 4.21875-3.320313 4.257812-2.773437 4.21875-2.304688 4.21875-1.757812 4.257812-1.289063 4.21875-.742187 4.21875-.273438 4.257813.273438 4.21875.742187 4.257813 1.289063 4.21875 1.757812 4.21875 2.304688 4.257812 2.773437 4.21875 3.320313 4.21875 3.789062 4.257812 4.335938 4.21875 4.84375 4.21875 5.3125 4.257813 5.859375 4.21875 6.328125 4.257813 6.875 4.21875 7.34375 4.21875 7.890625 4.257812 8.359375 4.21875 8.90625 4.21875 9.414062 4.257812 9.882813 4.21875 10.429687 4.257813 10.898438 4.21875 11.445312 4.21875 11.953125 4.257813 12.421875 4.21875 12.96875 4.21875 13.4375 4.257812 13.984375 4.21875 14.492188 4.257812 14.960937 4.21875 15.507813 4.21875 16.015625 4.257813 16.484375 4.21875 17.03125 4.21875 17.539062 4.257813 18.007813 4.21875 18.554687 4.257812 19.0625 4.21875 19.53125 4.21875 20.078125 4.257812 20.585938 4.21875 21.054687 4.21875 21.601563 4.257813 22.109375 4.21875 22.578125 4.21875 23.125 4.257813 23.632812 4.21875 24.101563 4.21875 24.648437 4.257812 25.15625" style="fill:none;stroke-width:5;stroke-linecap:round;stroke-linejoin:round;stroke:#000;stroke-miterlimit:10" transform="matrix(.1 0 0 -.1 0 113.39)"/></svg>

<?xml version="1.0" encoding="UTF-8"?>
<svg xmlns="http://www.w3.org/2000/svg" xmlns:xlink="http://www.w3.org/1999/xlink" width="113.39pt" height="113.39pt" viewBox="0 0 113.39 113.39" version="1.1">
<defs>
<clipPath id="clip1">
  <path d="M 105 54 L 113.390625 54 L 113.390625 59 L 105 59 Z M 105 54 "/>
</clipPath>
<clipPath id="clip2">
  <path d="M 56 7 L 57 7 L 57 113.390625 L 56 113.390625 Z M 56 7 "/>
</clipPath>
<clipPath id="clip3">
  <path d="M 35 49 L 79 49 L 79 113.390625 L 35 113.390625 Z M 35 49 "/>
</clipPath>
</defs>
<g id="surface1">
<path style=" stroke:none;fill-rule:nonzero;fill:rgb(0%,39.208984%,0%);fill-opacity:0.6;" d="M 42.582031 77.863281 L 42.722656 77.300781 L 43.148438 75.652344 L 43.570312 74.050781 L 43.992188 72.5 L 44.417969 71.003906 L 44.839844 69.554688 L 45.261719 68.15625 L 45.6875 66.8125 L 46.109375 65.515625 L 46.53125 64.273438 L 46.957031 63.078125 L 47.378906 61.933594 L 47.804688 60.84375 L 48.226562 59.800781 L 48.648438 58.8125 L 49.074219 57.871094 L 49.496094 56.980469 L 49.917969 56.144531 L 50.34375 55.355469 L 50.765625 54.621094 L 51.191406 53.933594 L 51.613281 53.300781 L 52.035156 52.714844 L 52.460938 52.183594 L 52.882812 51.699219 L 53.304688 51.265625 L 53.730469 50.886719 L 54.152344 50.554688 L 54.578125 50.277344 L 55 50.046875 L 55.421875 49.871094 L 55.847656 49.742188 L 56.269531 49.667969 L 56.691406 49.640625 L 57.117188 49.667969 L 57.539062 49.742188 L 57.964844 49.871094 L 58.386719 50.046875 L 58.808594 50.277344 L 59.234375 50.554688 L 59.65625 50.886719 L 60.078125 51.265625 L 60.503906 51.699219 L 60.925781 52.183594 L 61.347656 52.714844 L 61.773438 53.300781 L 62.195312 53.933594 L 62.621094 54.621094 L 63.042969 55.355469 L 63.464844 56.144531 L 63.890625 56.980469 L 64.3125 57.871094 L 64.734375 58.8125 L 65.160156 59.800781 L 65.582031 60.84375 L 66.007812 61.933594 L 66.429688 63.078125 L 66.851562 64.273438 L 67.277344 65.515625 L 67.699219 66.8125 L 68.121094 68.15625 L 68.546875 69.554688 L 68.96875 71.003906 L 69.394531 72.5 L 69.816406 74.050781 L 70.238281 75.652344 L 70.664062 77.300781 L 70.800781 77.863281 L 70.664062 78.425781 L 70.238281 80.074219 L 69.816406 81.675781 L 69.394531 83.226562 L 68.96875 84.722656 L 68.546875 86.171875 L 68.121094 87.570312 L 67.699219 88.914062 L 67.277344 90.210938 L 66.851562 91.453125 L 66.429688 92.648438 L 66.007812 93.792969 L 65.582031 94.882812 L 65.160156 95.925781 L 64.734375 96.914062 L 64.3125 97.855469 L 63.890625 98.746094 L 63.464844 99.582031 L 63.042969 100.371094 L 62.621094 101.105469 L 62.195312 101.792969 L 61.773438 102.425781 L 61.347656 103.011719 L 60.925781 103.542969 L 60.503906 104.027344 L 60.078125 104.460938 L 59.65625 104.839844 L 59.234375 105.171875 L 58.808594 105.449219 L 58.386719 105.679688 L 57.964844 105.855469 L 57.539062 105.984375 L 57.117188 106.058594 L 56.691406 106.085938 L 56.269531 106.058594 L 55.847656 105.984375 L 55.421875 105.855469 L 55 105.679688 L 54.578125 105.449219 L 54.152344 105.171875 L 53.730469 104.839844 L 53.304688 104.460938 L 52.882812 104.027344 L 52.460938 103.542969 L 52.035156 103.011719 L 51.613281 102.425781 L 51.191406 101.792969 L 50.765625 101.105469 L 50.34375 100.371094 L 49.917969 99.582031 L 49.496094 98.746094 L 49.074219 97.855469 L 48.648438 96.914062 L 48.226562 95.925781 L 47.804688 94.882812 L 47.378906 93.792969 L 46.957031 92.648438 L 46.53125 91.453125 L 46.109375 90.210938 L 45.6875 88.914062 L 45.261719 87.570312 L 44.839844 86.171875 L 44.417969 84.722656 L 43.992188 83.226562 L 43.570312 81.675781 L 43.148438 80.074219 L 42.722656 78.425781 L 42.582031 77.863281 "/>
<path style="fill:none;stroke-width:5;stroke-linecap:round;stroke-linejoin:round;stroke:rgb(0%,0%,0%);stroke-opacity:1;stroke-miterlimit:10;" d="M 1056.367188 566.946875 L 2.5 566.946875 " transform="matrix(0.1,0,0,-0.1,0,113.39)"/>
<g clip-path="url(#clip1)" clip-rule="nonzero">
<path style="fill-rule:nonzero;fill:rgb(0%,0%,0%);fill-opacity:1;stroke-width:5;stroke-linecap:round;stroke-linejoin:round;stroke:rgb(0%,0%,0%);stroke-opacity:1;stroke-miterlimit:10;" d="M 1131.367188 566.946875 L 1056.367188 587.025 L 1056.367188 546.829688 Z M 1131.367188 566.946875 " transform="matrix(0.1,0,0,-0.1,0,113.39)"/>
</g>
<g clip-path="url(#clip2)" clip-rule="nonzero">
<path style="fill:none;stroke-width:5;stroke-linecap:round;stroke-linejoin:round;stroke:rgb(0%,0%,0%);stroke-opacity:1;stroke-miterlimit:10;" d="M 566.914062 1056.360938 L 566.914062 2.49375 " transform="matrix(0.1,0,0,-0.1,0,113.39)"/>
</g>
<path style="fill-rule:nonzero;fill:rgb(0%,0%,0%);fill-opacity:1;stroke-width:5;stroke-linecap:round;stroke-linejoin:round;stroke:rgb(0%,0%,0%);stroke-opacity:1;stroke-miterlimit:10;" d="M 566.914062 1131.360938 L 546.835938 1056.360938 L 587.03125 1056.360938 Z M 566.914062 1131.360938 " transform="matrix(0.1,0,0,-0.1,0,113.39)"/>
<g clip-path="url(#clip3)" clip-rule="nonzero">
<path style="fill:none;stroke-width:5;stroke-linecap:round;stroke-linejoin:round;stroke:rgb(0%,0%,0%);stroke-opacity:1;stroke-miterlimit:10;" d="M 355.273438 2.49375 L 359.492188 27.65 L 363.75 52.298438 L 367.96875 76.4 L 372.1875 100.032813 L 376.445312 123.157813 L 380.664062 145.735938 L 384.882812 167.845313 L 389.140625 189.446875 L 393.359375 210.501563 L 397.617188 231.0875 L 401.835938 251.165625 L 406.054688 270.696875 L 410.3125 289.759375 L 414.53125 308.314063 L 418.75 326.321875 L 423.007812 343.860938 L 427.226562 360.892188 L 431.484375 377.376563 L 435.703125 393.392188 L 439.921875 408.9 L 444.179688 423.860938 L 448.398438 438.353125 L 452.617188 452.3375 L 456.875 465.775 L 461.09375 478.74375 L 465.3125 491.165625 L 469.570312 503.11875 L 473.789062 514.564063 L 478.046875 525.4625 L 482.265625 535.892188 L 486.484375 545.775 L 490.742188 555.189063 L 494.960938 564.095313 L 499.179688 572.454688 L 503.4375 580.345313 L 507.65625 587.689063 L 511.914062 594.564063 L 516.132812 600.892188 L 520.351562 606.751563 L 524.609375 612.064063 L 528.828125 616.907813 L 533.046875 621.24375 L 537.304688 625.032813 L 541.523438 628.353125 L 545.78125 631.126563 L 550 633.43125 L 554.21875 635.189063 L 558.476562 636.478125 L 562.695312 637.220313 L 566.914062 637.49375 L 571.171875 637.220313 L 575.390625 636.478125 L 579.648438 635.189063 L 583.867188 633.43125 L 588.085938 631.126563 L 592.34375 628.353125 L 596.5625 625.032813 L 600.78125 621.24375 L 605.039062 616.907813 L 609.257812 612.064063 L 613.476562 606.751563 L 617.734375 600.892188 L 621.953125 594.564063 L 626.210938 587.689063 L 630.429688 580.345313 L 634.648438 572.454688 L 638.90625 564.095313 L 643.125 555.189063 L 647.34375 545.775 L 651.601562 535.892188 L 655.820312 525.4625 L 660.078125 514.564063 L 664.296875 503.11875 L 668.515625 491.165625 L 672.773438 478.74375 L 676.992188 465.775 L 681.210938 452.3375 L 685.46875 438.353125 L 689.6875 423.860938 L 693.945312 408.9 L 698.164062 393.392188 L 702.382812 377.376563 L 706.640625 360.892188 L 710.859375 343.860938 L 715.078125 326.321875 L 719.335938 308.314063 L 723.554688 289.759375 L 727.8125 270.696875 L 732.03125 251.165625 L 736.25 231.0875 L 740.507812 210.501563 L 744.726562 189.446875 L 748.945312 167.845313 L 753.203125 145.735938 L 757.421875 123.157813 L 761.640625 100.032813 L 765.898438 76.4 L 770.117188 52.298438 L 774.335938 27.65 L 778.59375 2.49375 " transform="matrix(0.1,0,0,-0.1,0,113.39)"/>
</g>
<path style="fill:none;stroke-width:5;stroke-linecap:round;stroke-linejoin:round;stroke:rgb(0%,0%,0%);stroke-opacity:1;stroke-miterlimit:10;" d="M 355.273438 708.040625 L 359.492188 682.884375 L 363.75 658.235938 L 367.96875 634.134375 L 372.1875 610.501563 L 376.445312 587.376563 L 380.664062 564.798438 L 384.882812 542.689063 L 389.140625 521.0875 L 393.359375 500.032813 L 397.617188 479.446875 L 401.835938 459.36875 L 406.054688 439.8375 L 410.3125 420.775 L 414.53125 402.220313 L 418.75 384.2125 L 423.007812 366.673438 L 427.226562 349.642188 L 431.484375 333.157813 L 435.703125 317.142188 L 439.921875 301.634375 L 444.179688 286.673438 L 448.398438 272.18125 L 452.617188 258.196875 L 456.875 244.759375 L 461.09375 231.790625 L 465.3125 219.36875 L 469.570312 207.415625 L 473.789062 195.970313 L 478.046875 185.071875 L 482.265625 174.642188 L 486.484375 164.759375 L 490.742188 155.345313 L 494.960938 146.439063 L 499.179688 138.079688 L 503.4375 130.189063 L 507.65625 122.845313 L 511.914062 115.970313 L 516.132812 109.642188 L 520.351562 103.782813 L 524.609375 98.470313 L 528.828125 93.626563 L 533.046875 89.290625 L 537.304688 85.501563 L 541.523438 82.18125 L 545.78125 79.407813 L 550 77.103125 L 554.21875 75.345313 L 558.476562 74.05625 L 562.695312 73.314063 L 566.914062 73.040625 L 571.171875 73.314063 L 575.390625 74.05625 L 579.648438 75.345313 L 583.867188 77.103125 L 588.085938 79.407813 L 592.34375 82.18125 L 596.5625 85.501563 L 600.78125 89.290625 L 605.039062 93.626563 L 609.257812 98.470313 L 613.476562 103.782813 L 617.734375 109.642188 L 621.953125 115.970313 L 626.210938 122.845313 L 630.429688 130.189063 L 634.648438 138.079688 L 638.90625 146.439063 L 643.125 155.345313 L 647.34375 164.759375 L 651.601562 174.642188 L 655.820312 185.071875 L 660.078125 195.970313 L 664.296875 207.415625 L 668.515625 219.36875 L 672.773438 231.790625 L 676.992188 244.759375 L 681.210938 258.196875 L 685.46875 272.18125 L 689.6875 286.673438 L 693.945312 301.634375 L 698.164062 317.142188 L 702.382812 333.157813 L 706.640625 349.642188 L 710.859375 366.673438 L 715.078125 384.2125 L 719.335938 402.220313 L 723.554688 420.775 L 727.8125 439.8375 L 732.03125 459.36875 L 736.25 479.446875 L 740.507812 500.032813 L 744.726562 521.0875 L 748.945312 542.689063 L 753.203125 564.798438 L 757.421875 587.376563 L 761.640625 610.501563 L 765.898438 634.134375 L 770.117188 658.235938 L 774.335938 682.884375 L 778.59375 708.040625 " transform="matrix(0.1,0,0,-0.1,0,113.39)"/>
</g>
</svg>
